images/themes/sigpacgo/nodpi/ic_project_folder_black_24dp.svg

<?xml version="1.0" encoding="UTF-8" standalone="no"?>
<!-- Uploaded to: SVG Repo, www.svgrepo.com, Transformed by: SVG Repo Mixer Tools -->

<svg
   width="800px"
   height="800px"
   viewBox="0 0 24 24"
   fill="none"
   version="1.1"
   id="svg1"
   sodipodi:docname="ic_open_black_24dp (copy).svg"
   inkscape:version="1.4 (e7c3feb100, 2024-10-09)"
   xmlns:inkscape="http://www.inkscape.org/namespaces/inkscape"
   xmlns:sodipodi="http://sodipodi.sourceforge.net/DTD/sodipodi-0.dtd"
   xmlns="http://www.w3.org/2000/svg"
   xmlns:svg="http://www.w3.org/2000/svg">
  <defs
     id="defs1" />
  <sodipodi:namedview
     id="namedview1"
     pagecolor="#ffffff"
     bordercolor="#000000"
     borderopacity="0.25"
     inkscape:showpageshadow="2"
     inkscape:pageopacity="0.0"
     inkscape:pagecheckerboard="0"
     inkscape:deskcolor="#d1d1d1"
     inkscape:zoom="0.72625"
     inkscape:cx="209.29432"
     inkscape:cy="216.179"
     inkscape:window-width="1277"
     inkscape:window-height="1214"
     inkscape:window-x="549"
     inkscape:window-y="157"
     inkscape:window-maximized="0"
     inkscape:current-layer="svg1" />
  <g
     id="SVGRepo_bgCarrier"
     stroke-width="0" />
  <g
     id="SVGRepo_tracerCarrier"
     stroke-linecap="round"
     stroke-linejoin="round" />
  <g
     id="SVGRepo_iconCarrier">
    <path
       fill-rule="evenodd"
       clip-rule="evenodd"
       d="M1 5C1 3.34315 2.34315 2 4 2H8.55848C9.84977 2 10.9962 2.82629 11.4045 4.05132L11.7208 5H20C21.1046 5 22 5.89543 22 7V9.00961C23.1475 9.12163 23.9808 10.196 23.7695 11.3578L22.1332 20.3578C21.9603 21.3087 21.132 22 20.1654 22H3C1.89543 22 1 21.1046 1 20V5ZM20 9V7H11.7208C10.8599 7 10.0956 6.44914 9.82339 5.63246L9.50716 4.68377C9.37105 4.27543 8.98891 4 8.55848 4H4C3.44772 4 3 4.44772 3 5V12.2709L3.35429 10.588C3.54913 9.66249 4.36562 9 5.31139 9H20ZM3.36634 20C3.41777 19.9109 3.4562 19.8122 3.47855 19.706L5.31139 11L21 11H21.8018L20.1654 20L3.36634 20Z"
       fill="#09244b"
       id="path1" />
  </g>
  <path
     d="m 17.010965,11.850742 0.264661,1.177025 c 0.176451,0.06539 0.342009,0.133396 0.496395,0.206624 0.155848,0.07323 0.312307,0.159547 0.474339,0.264951 l 1.279213,-0.353107 0.882218,1.333962 -1.014549,0.784682 c 0.0293,0.156935 0.0441,0.326951 0.0441,0.510043 0,0.183085 -0.0148,0.353107 -0.0441,0.510045 l 1.014549,0.784682 -0.882218,1.333959 -1.279213,-0.353107 c -0.161739,0.104633 -0.31995,0.193563 -0.474339,0.264951 -0.155848,0.07323 -0.31995,0.141233 -0.496395,0.206625 l -0.264661,1.177024 h -1.764433 l -0.264661,-1.177024 c -0.176451,-0.06539 -0.342005,-0.133396 -0.496394,-0.206625 -0.155848,-0.07323 -0.312304,-0.159546 -0.474043,-0.264951 l -1.279216,0.353107 -0.882215,-1.333959 1.014549,-0.784682 c -0.0293,-0.157707 -0.04411,-0.327738 -0.04411,-0.510829 0,-0.183086 0.0148,-0.353108 0.04411,-0.510045 L 11.85,14.479428 l 0.882215,-1.333959 1.279216,0.353107 c 0.161739,-0.104633 0.319656,-0.193563 0.474043,-0.264951 0.155848,-0.07323 0.319952,-0.141232 0.496394,-0.206624 l 0.264661,-1.177025 z m -0.882215,2.354049 c -0.48522,0 -0.900742,0.154323 -1.245983,0.461131 -0.345536,0.307333 -0.51845,0.676659 -0.51845,1.108234 0,0.431574 0.17349,0.801159 0.51845,1.108234 0.345534,0.307333 0.760763,0.46113 1.245983,0.46113 0.485217,0 0.900742,-0.154322 1.245983,-0.46113 0.345534,-0.307336 0.51845,-0.67666 0.51845,-1.108234 0,-0.431575 -0.17349,-0.801163 -0.51845,-1.108234 -0.345389,-0.307464 -0.760766,-0.461131 -1.245983,-0.461131 z"
     id="path2"
     style="fill:#002255;stroke-width:0.0208005" />
</svg>

<!-- Uploaded to: SVG Repo, www.svgrepo.com, Transformed by: SVG Repo Mixer Tools -->
<svg xmlns="http://www.w3.org/2000/svg" xmlns:xlink="http://www.w3.org/1999/xlink" width="24" height="24" viewBox="0 0 24 24">
<path fill-rule="evenodd" fill="rgb(3.529412%, 14.117647%, 29.411765%)" fill-opacity="1" d="M 1 5 C 1 3.34375 2.34375 2 4 2 L 8.558594 2 C 9.851562 2 10.996094 2.828125 11.40625 4.050781 L 11.722656 5 L 20 5 C 21.105469 5 22 5.894531 22 7 L 22 9.007812 C 23.148438 9.121094 23.980469 10.195312 23.769531 11.359375 L 22.132812 20.359375 C 21.960938 21.308594 21.132812 22 20.164062 22 L 3 22 C 1.894531 22 1 21.105469 1 20 Z M 20 9 L 20 7 L 11.722656 7 C 10.859375 7 10.09375 6.449219 9.824219 5.632812 L 9.507812 4.683594 C 9.371094 4.277344 8.988281 4 8.558594 4 L 4 4 C 3.449219 4 3 4.449219 3 5 L 3 12.269531 L 3.355469 10.589844 C 3.550781 9.664062 4.367188 9 5.3125 9 Z M 3.367188 20 C 3.417969 19.910156 3.457031 19.8125 3.480469 19.707031 L 5.3125 11 L 21.800781 11 L 20.164062 20 Z M 3.367188 20 "/>
<path fill-rule="nonzero" fill="rgb(0%, 13.333333%, 33.333333%)" fill-opacity="1" d="M 17.011719 11.851562 L 17.277344 13.027344 C 17.453125 13.09375 17.617188 13.160156 17.773438 13.234375 C 17.929688 13.308594 18.085938 13.394531 18.246094 13.5 L 19.527344 13.144531 L 20.40625 14.480469 L 19.394531 15.265625 C 19.421875 15.421875 19.4375 15.59375 19.4375 15.773438 C 19.4375 15.957031 19.421875 16.128906 19.394531 16.285156 L 20.40625 17.070312 L 19.527344 18.402344 L 18.246094 18.050781 C 18.085938 18.15625 17.925781 18.242188 17.773438 18.316406 C 17.617188 18.390625 17.453125 18.457031 17.277344 18.523438 L 17.011719 19.699219 L 15.246094 19.699219 L 14.980469 18.523438 C 14.804688 18.457031 14.640625 18.390625 14.484375 18.316406 C 14.328125 18.242188 14.171875 18.15625 14.011719 18.050781 L 12.730469 18.402344 L 11.851562 17.070312 L 12.863281 16.285156 C 12.835938 16.128906 12.820312 15.957031 12.820312 15.773438 C 12.820312 15.589844 12.835938 15.421875 12.863281 15.265625 L 11.851562 14.480469 L 12.730469 13.144531 L 14.011719 13.5 C 14.171875 13.394531 14.332031 13.304688 14.484375 13.234375 C 14.640625 13.160156 14.804688 13.09375 14.980469 13.027344 L 15.246094 11.851562 Z M 16.128906 14.203125 C 15.644531 14.203125 15.226562 14.359375 14.882812 14.664062 C 14.539062 14.972656 14.363281 15.34375 14.363281 15.773438 C 14.363281 16.207031 14.539062 16.574219 14.882812 16.882812 C 15.226562 17.191406 15.644531 17.34375 16.128906 17.34375 C 16.613281 17.34375 17.03125 17.1875 17.375 16.882812 C 17.71875 16.574219 17.894531 16.207031 17.894531 15.773438 C 17.894531 15.34375 17.71875 14.972656 17.375 14.664062 C 17.03125 14.359375 16.613281 14.203125 16.128906 14.203125 Z M 16.128906 14.203125 "/>
</svg>
